www/assets/icons/wb_incandescent_outline.svg

<svg width="24" height="24" viewBox="0 0 24 24" xmlns="http://www.w3.org/2000/svg" fill='currentColor'><path d="M3.55 18.5649L4.96 19.9749L6.75 18.1749L5.34 16.7649L3.55 18.5649ZM11 19.4749H13V22.4749H11V19.4749ZM1 10.4749H4V12.4749H1V10.4749ZM13 3.5249V7.4849L14 8.0649C15.24 8.7849 16 10.1049 16 11.5249C16 13.7349 14.21 15.5249 12 15.5249C9.79 15.5249 8 13.7349 8 11.5249C8 10.1049 8.77 8.7849 10 8.0649L11 7.4849V3.5249H13ZM15 1.5249H9V6.3349C7.21 7.3749 6 9.3049 6 11.5249C6 14.8349 8.69 17.5249 12 17.5249C15.31 17.5249 18 14.8349 18 11.5249C18 9.3049 16.79 7.3749 15 6.3349V1.5249ZM20 10.4749H23V12.4749H20V10.4749ZM17.24 18.1849L19.03 19.9849L20.44 18.5749L18.64 16.7849L17.24 18.1849Z"/></svg>

<svg xmlns="http://www.w3.org/2000/svg" width="24" height="24" viewBox="0 0 24 24" fill='currentColor'><path d="m3.55 18.565 1.41 1.41 1.79-1.8-1.41-1.41zm7.45.91h2v3h-2zm-10-9h3v2H1zm12-6.95v3.96l1 .58c1.24.72 2 2.04 2 3.46 0 2.21-1.79 4-4 4s-4-1.79-4-4c0-1.42.77-2.74 2-3.46l1-.58v-3.96zm2-2H9v4.81c-1.79 1.04-3 2.97-3 5.19 0 3.31 2.69 6 6 6s6-2.69 6-6c0-2.22-1.21-4.15-3-5.19zm5 8.95h3v2h-3zm-2.76 7.71 1.79 1.8 1.41-1.41-1.8-1.79z"/></svg>
